dist/assets/img/main/main-block/icons/4.svg

<svg width="67" height="66" viewBox="0 0 67 66" fill="none" xmlns="http://www.w3.org/2000/svg">
<path d="M66.1878 36.6958C65.8135 35.362 65.4611 34.1012 65.4611 32.9508C65.4611 31.8004 65.8135 30.5397 66.1878 29.2059C66.7835 27.0827 67.3981 24.8865 66.6626 22.7518C65.8995 20.5312 63.9974 19.08 62.158 17.6788C61.0555 16.8379 60.0141 16.0442 59.3383 15.1703C58.6509 14.2792 58.1645 13.0901 57.6518 11.8308C56.8056 9.76204 55.9318 7.62167 53.9744 6.27785C52.049 4.95408 49.6459 4.82658 47.3259 4.7048C45.8782 4.62887 44.5092 4.55581 43.363 4.20481C42.2911 3.87674 41.1813 3.19623 40.0074 2.47561C38.1185 1.31517 35.9761 0 33.4988 0C31.0214 0 28.879 1.31517 26.9901 2.47704C25.8162 3.19766 24.7093 3.8796 23.636 4.20624C22.4883 4.55724 21.1193 4.63031 19.6716 4.70624C17.3501 4.82944 14.9499 4.95552 13.0231 6.27928C11.0657 7.6231 10.1919 9.76204 9.34568 11.8308C8.83011 13.0901 8.34367 14.2806 7.65625 15.1717C6.98047 16.0485 5.93914 16.8422 4.83664 17.6846C2.99866 19.0871 1.0995 20.5355 0.336341 22.7533C-0.399145 24.8893 0.215459 27.0841 0.809674 29.2088C1.18397 30.5425 1.53642 31.8018 1.53642 32.9523C1.53642 34.1027 1.18397 35.3634 0.809674 36.6972C0.215459 38.8204 -0.399145 41.0166 0.336341 43.1541C1.0995 45.3718 3.00011 46.8231 4.8381 48.2242C5.9406 49.0638 6.98193 49.8589 7.65625 50.7328C8.34513 51.6239 8.83157 52.813 9.34568 54.0737C10.1919 56.1425 11.0672 58.2828 13.026 59.6295C14.9499 60.9504 17.3516 61.0765 19.6716 61.1983C21.1193 61.2742 22.4883 61.3473 23.6345 61.6983C24.7064 62.0263 25.8147 62.7068 26.9872 63.426C28.8776 64.585 31.0199 65.9016 33.4988 65.9016C35.9776 65.9016 38.1214 64.585 40.0133 63.4246C41.1857 62.7054 42.2925 62.0249 43.3659 61.6968C44.5121 61.3458 45.8811 61.2728 47.3288 61.1968C49.6503 61.0751 52.0505 60.949 53.9744 59.6281C55.9362 58.2814 56.81 56.1382 57.6562 54.068C58.1703 52.8101 58.6553 51.621 59.3398 50.7328C60.0156 49.8589 61.0569 49.0638 62.1594 48.2242C63.9988 46.8217 65.8995 45.3718 66.6641 43.1527C67.3996 41.0152 66.7835 38.8204 66.1878 36.6958ZM63.904 42.2344C63.4219 43.6355 61.9408 44.7644 60.3737 45.9592C59.1721 46.8761 57.9284 47.8245 57.0196 48.9993C56.0977 50.197 55.5151 51.621 54.9515 53.0007C54.2334 54.76 53.5548 56.4204 52.3066 57.2771C51.0629 58.131 49.1739 58.2298 47.1728 58.3344C45.6101 58.4161 43.992 58.5006 42.4977 58.959C41.069 59.3989 39.7466 60.2083 38.4693 60.9934C36.758 62.045 35.1429 63.0364 33.4986 63.0364C31.8543 63.0364 30.2406 62.045 28.5293 60.9934C27.2535 60.2097 25.9325 59.3989 24.5023 58.959C23.0081 58.502 21.39 58.4161 19.8273 58.3344C17.8262 58.2298 15.9357 58.1295 14.6934 57.2771C13.4467 56.4204 12.7666 54.76 12.0486 53.0021C11.485 51.6225 10.9009 50.197 9.97758 48.9993C9.07024 47.8245 7.82647 46.8761 6.62347 45.9578C5.05783 44.763 3.57812 43.6355 3.09605 42.2344C2.64602 40.9292 3.11935 39.2416 3.6189 37.4565C4.0267 35.9966 4.44906 34.4895 4.44906 32.9494C4.44906 31.4093 4.0267 29.9036 3.6189 28.4437C3.1179 26.6586 2.64602 24.9724 3.09605 23.6673C3.57812 22.2662 5.05638 21.1387 6.62202 19.9438C7.82501 19.0255 9.07024 18.0757 9.97612 16.8995C10.9024 15.7018 11.485 14.2749 12.05 12.8952C12.7666 11.1374 13.4453 9.47838 14.6905 8.62452C15.9343 7.76923 17.8262 7.67038 19.8287 7.56579C21.39 7.4827 23.0081 7.39818 24.5009 6.93973C25.9325 6.50134 27.2549 5.68903 28.5337 4.90394C30.242 3.85668 31.8557 2.86529 33.4986 2.86529C35.1414 2.86529 36.7566 3.85668 38.4664 4.90681C39.7451 5.69333 41.0661 6.50421 42.4977 6.9426C43.9905 7.39961 45.6071 7.48413 47.1699 7.56723C49.1724 7.67181 51.0629 7.77353 52.3066 8.62738C53.5533 9.48411 54.232 11.1431 54.9485 12.8981C55.5136 14.2792 56.0947 15.7046 57.021 16.9023C57.9284 18.0771 59.1721 19.0255 60.3737 19.9424C61.9408 21.1387 63.4219 22.2676 63.904 23.6716C64.354 24.9739 63.8792 26.6601 63.3797 28.4452C62.9704 29.905 62.5481 31.4122 62.5481 32.9523C62.5481 34.4923 62.969 35.9995 63.3797 37.4579C63.8809 39.243 64.354 40.9292 63.904 42.2344Z" fill="white"/>
<path d="M33.5012 10.0081C20.6182 10.0081 10.1748 20.2816 10.1748 32.9538C10.1748 45.6266 20.6182 55.8996 33.5012 55.8996C46.3836 55.8996 56.8276 45.6266 56.8276 32.9538C56.8135 20.2869 46.3782 10.022 33.5012 10.0081ZM33.5012 53.7143C21.845 53.7143 12.3964 44.4198 12.3964 32.9538C12.3964 21.4884 21.845 12.1934 33.5012 12.1934C45.1568 12.1934 54.606 21.4884 54.606 32.9538C54.593 44.4144 45.1514 53.702 33.5012 53.7143Z" fill="white"/>
<path d="M22.7183 42.0151L42.7123 22.3474L44.2835 23.8924L24.289 43.5608L22.7183 42.0151Z" fill="white"/>
<path d="M40.1658 35.1392C37.7115 35.1392 35.7227 37.0961 35.7227 39.5098C35.7227 41.9239 37.7115 43.8804 40.1658 43.8804C42.6195 43.8804 44.6089 41.9239 44.6089 39.5098C44.6089 37.0961 42.6195 35.1392 40.1658 35.1392ZM40.1658 41.6951C38.9389 41.6951 37.9442 40.7166 37.9442 39.5098C37.9442 38.3029 38.9389 37.3245 40.1658 37.3245C41.3927 37.3245 42.3874 38.3029 42.3874 39.5098C42.3874 40.7166 41.3927 41.6951 40.1658 41.6951Z" fill="white"/>
<path d="M26.8367 30.7685C29.2904 30.7685 31.2798 28.812 31.2798 26.3979C31.2798 23.9842 29.2904 22.0273 26.8367 22.0273C24.3824 22.0273 22.3936 23.9842 22.3936 26.3979C22.3936 28.812 24.3824 30.7685 26.8367 30.7685ZM26.8367 24.2126C28.0636 24.2126 29.0583 25.191 29.0583 26.3979C29.0583 27.6047 28.0636 28.5832 26.8367 28.5832C25.6098 28.5832 24.6151 27.6047 24.6151 26.3979C24.6151 25.191 25.6098 24.2126 26.8367 24.2126Z" fill="white"/>
</svg>

<svg width="67" height="66" fill="none" xmlns="http://www.w3.org/2000/svg"><path d="M66.188 36.696c-.374-1.334-.727-2.595-.727-3.745s.353-2.411.727-3.745c.596-2.123 1.21-4.32.475-6.454-.763-2.22-2.666-3.672-4.505-5.073-1.102-.841-2.144-1.635-2.82-2.509-.687-.89-1.174-2.08-1.686-3.34-.846-2.068-1.72-4.208-3.678-5.552-1.925-1.324-4.328-1.451-6.648-1.573-1.448-.076-2.817-.15-3.963-.5-1.072-.328-2.182-1.009-3.356-1.73C38.118 1.316 35.977 0 33.5 0c-2.478 0-4.62 1.315-6.509 2.477-1.174.72-2.28 1.403-3.354 1.73-1.148.35-2.517.423-3.964.5-2.322.122-4.722.249-6.649 1.572-1.957 1.344-2.831 3.483-3.677 5.552-.516 1.26-1.002 2.45-1.69 3.34-.676.878-1.717 1.671-2.82 2.514C3 19.087 1.1 20.535.337 22.753c-.735 2.136-.12 4.331.474 6.456.374 1.334.726 2.593.726 3.743s-.352 2.411-.726 3.745C.215 38.82-.4 41.017.336 43.154c.763 2.218 2.664 3.67 4.502 5.07 1.103.84 2.144 1.635 2.818 2.509.69.89 1.176 2.08 1.69 3.34.846 2.07 1.721 4.21 3.68 5.556 1.924 1.321 4.326 1.448 6.646 1.57 1.447.075 2.816.148 3.962.5 1.072.327 2.18 1.008 3.353 1.727 1.89 1.159 4.033 2.476 6.512 2.476 2.479 0 4.622-1.317 6.514-2.477 1.173-.72 2.28-1.4 3.353-1.728 1.146-.351 2.515-.424 3.963-.5 2.321-.122 4.721-.248 6.645-1.569 1.962-1.347 2.836-3.49 3.682-5.56.514-1.258 1-2.447 1.684-3.335.676-.874 1.717-1.67 2.82-2.509 1.839-1.402 3.74-2.852 4.504-5.071.736-2.138.12-4.333-.476-6.457zm-2.284 5.538c-.482 1.401-1.963 2.53-3.53 3.725-1.202.917-2.446 1.865-3.354 3.04-.922 1.198-1.505 2.622-2.069 4.002-.718 1.759-1.396 3.42-2.644 4.276-1.244.854-3.133.953-5.134 1.057-1.563.082-3.181.167-4.675.625-1.429.44-2.751 1.25-4.029 2.034-1.711 1.052-3.326 2.043-4.97 2.043-1.645 0-3.258-.991-4.97-2.043-1.276-.783-2.596-1.594-4.027-2.034-1.494-.457-3.112-.543-4.675-.625-2-.104-3.891-.205-5.134-1.057-1.246-.857-1.926-2.517-2.644-4.275-.564-1.38-1.148-2.805-2.071-4.003-.908-1.175-2.152-2.123-3.355-3.041-1.565-1.195-3.045-2.322-3.527-3.724-.45-1.305.023-2.992.523-4.778.408-1.46.83-2.967.83-4.507 0-1.54-.422-3.045-.83-4.505-.501-1.785-.973-3.472-.523-4.777.482-1.4 1.96-2.528 3.526-3.723 1.203-.918 2.448-1.868 3.354-3.044.926-1.198 1.509-2.625 2.074-4.005.717-1.758 1.395-3.417 2.64-4.27 1.244-.856 3.136-.955 5.139-1.06 1.561-.082 3.18-.167 4.672-.625 1.431-.439 2.754-1.251 4.033-2.036 1.708-1.047 3.322-2.039 4.965-2.039 1.642 0 3.258.992 4.967 2.042 1.28.786 2.6 1.597 4.032 2.036 1.492.457 3.11.541 4.672.624 2.002.105 3.893.207 5.137 1.06 1.246.857 1.925 2.516 2.642 4.271.565 1.381 1.146 2.807 2.072 4.004.907 1.175 2.151 2.123 3.353 3.04 1.567 1.197 3.048 2.326 3.53 3.73.45 1.302-.025 2.988-.524 4.773-.41 1.46-.832 2.967-.832 4.507 0 1.54.421 3.047.832 4.506.5 1.785.974 3.471.524 4.776z" fill="#fff"/><path d="M33.501 10.008c-12.883 0-23.326 10.274-23.326 22.946C10.175 45.627 20.618 55.9 33.5 55.9c12.883 0 23.327-10.273 23.327-22.946-.015-12.667-10.45-22.932-23.327-22.946zm0 43.706c-11.656 0-21.105-9.294-21.105-20.76 0-11.466 9.449-20.76 21.105-20.76s21.105 9.294 21.105 20.76c-.013 11.46-9.455 20.748-21.105 20.76z" fill="#fff"/><path d="M22.718 42.015l19.994-19.668 1.571 1.545L24.29 43.561l-1.57-1.546zm17.448-6.875c-2.454 0-4.443 1.956-4.443 4.37s1.989 4.37 4.443 4.37c2.454 0 4.443-1.956 4.443-4.37s-1.99-4.37-4.443-4.37zm0 6.555c-1.227 0-2.222-.978-2.222-2.185s.995-2.185 2.222-2.185c1.227 0 2.221.978 2.221 2.185s-.994 2.185-2.221 2.185zM26.837 30.768c2.453 0 4.443-1.956 4.443-4.37s-1.99-4.37-4.443-4.37c-2.455 0-4.443 1.956-4.443 4.37s1.988 4.37 4.443 4.37zm0-6.555c1.227 0 2.221.978 2.221 2.185s-.994 2.185-2.221 2.185-2.222-.978-2.222-2.185.995-2.185 2.222-2.185z" fill="#fff"/></svg>
